X:8
T:Turkish Air.A. ST.08
M:2/4
L:1/8
Q:1/4=100
S:Anonymous Staffordshire MS, Early 19thC.
R:.Air
O:England
A:Staffordshire
N:ms. also has title “Hope told a Flattering Tale” at top of this tune, b
N:crossed out. Tempo indication of “Allegro”.
Z:vmp.Tim Willets
K:A minor
“^Allegro”A/2B/2c/2d/2|ee A/B/c/d/ cA A/2B/2c/2d/2|eA B^G|A2:|!
|:c/2d/2e/2f/2|gg a/2g/2f/2e/2|fd B/2c/2d/2e/2|ff g/2f/2e/2d/2|!
ec A/2B/2c/2d/2|ee A/2B/2c/2d/2|ee A/2B/2c/2d/2|ea e/2d/2c/2B/2|A2||!
e>d|^cAB^G|Aae>d|^cAB^G|!
A2e>d|^cAB^G|Aae>d|^cAB^G|A4|]

